<?xml version="1.0" encoding="UTF-8"?>
<map version="1.10" tiledversion="1.11.2" orientation="orthogonal" renderorder="right-down" width="20" height="12" tilewidth="32" tileheight="32" infinite="0" nextlayerid="6" nextobjectid="19">
 <tileset firstgid="1" name="TestMap" tilewidth="32" tileheight="32" tilecount="576" columns="32">
  <image source="DemoMap.png" width="1044" height="586"/>
 </tileset>
 <tileset firstgid="577" name="resized_image_32x32" tilewidth="32" tileheight="32" tilecount="1" columns="1">
  <image source="resized_image_32x32.png" width="32" height="32"/>
 </tileset>
 <objectgroup id="2" name="Block">
  <object id="1" x="0" y="0">
   <polygon points="0,0 32,0 32,320 0,320"/>
  </object>
  <object id="2" x="32" y="64">
   <polygon points="0,0 416,0 416,32 0,32"/>
  </object>
  <object id="3" x="416" y="96">
   <polygon points="0,0 32,0 32,32 0,32"/>
  </object>
  <object id="4" x="480" y="128">
   <polygon points="0,0 0,-64 32,-64 32,0"/>
  </object>
  <object id="5" x="512" y="96">
   <polygon points="0,0 0,-32 96,-32 96,0"/>
  </object>
  <object id="6" x="608" y="0">
   <polygon points="0,0 0,320 32,320 32,0"/>
  </object>
  <object id="7" x="160" y="160">
   <polygon points="0,0 448,0 448,32 0,32"/>
  </object>
  <object id="8" x="160" y="192">
   <polygon points="0,0 0,32 32,32 32,0"/>
  </object>
  <object id="9" x="96" y="224">
   <polygon points="0,0 32,0 32,-64 0,-64"/>
  </object>
  <object id="10" x="96" y="192">
   <polygon points="0,0 -64,0 -64,-32 0,-32"/>
  </object>
  <object id="11" x="32" y="256">
   <polygon points="0,0 288,0 288,32 0,32"/>
  </object>
  <object id="12" x="320" y="256">
   <polygon points="0,0 32,0 32,64 0,64"/>
  </object>
  <object id="13" x="384" y="320">
   <polygon points="0,0 0,-64 32,-64 32,0"/>
  </object>
  <object id="14" x="416" y="288">
   <polygon points="0,0 0,-32 192,-32 192,0"/>
  </object>
  <object id="15" x="32" y="320">
   <polygon points="0,0 576,0 576,64 0,64"/>
  </object>
 </objectgroup>
 <objectgroup id="5" name="TargetChess">
  <object id="16" name="targetChess" x="352" y="288">
   <polygon points="0,0 32,0 32,32 0,32"/>
  </object>
 </objectgroup>
 <objectgroup id="3" name="PlayerChess">
  <object id="18" name="Rook" x="96" y="32">
   <polygon points="0,0 32,0 32,32 0,32"/>
  </object>
 </objectgroup>
 <layer id="1" name="Tile Layer 1" width="20" height="12">
  <data encoding="csv">
577,250,235,250,235,250,235,250,235,250,235,250,235,250,235,250,235,250,235,577,
577,235,250,235,250,235,250,235,250,235,250,235,250,235,250,235,250,235,250,577,
577,577,577,577,577,577,577,577,577,577,577,577,577,577,235,577,577,577,577,577,
577,235,250,235,250,235,250,235,250,235,250,235,250,577,250,577,250,235,250,577,
577,250,235,250,235,250,235,250,235,250,235,250,235,250,235,250,235,250,235,577,
577,577,577,577,250,577,577,577,577,577,577,577,577,577,577,577,577,577,577,577,
577,250,235,577,235,577,235,250,235,250,235,250,235,250,235,250,235,250,235,577,
577,235,250,235,250,235,250,235,250,235,250,235,250,235,250,235,250,235,250,577,
577,577,577,577,577,577,577,577,577,577,577,250,577,577,577,577,577,577,577,577,
577,235,250,235,250,235,250,235,250,235,577,235,577,235,250,235,250,235,250,577,
577,577,577,577,577,577,577,577,577,577,577,577,577,577,577,577,577,577,577,577,
577,577,577,577,577,577,577,577,577,577,577,577,577,577,577,577,577,577,577,577
</data>
 </layer>
</map>
