<?xml version="1.0" encoding="UTF-8"?>
<map version="1.10" tiledversion="1.11.2" orientation="orthogonal" renderorder="right-down" width="20" height="12" tilewidth="32" tileheight="32" infinite="0" nextlayerid="6" nextobjectid="15">
 <tileset firstgid="1" name="TestMap" tilewidth="32" tileheight="32" tilecount="576" columns="32">
  <image source="DemoMap.png" width="1044" height="586"/>
 </tileset>
 <tileset firstgid="577" name="resized_image_32x32" tilewidth="32" tileheight="32" tilecount="1" columns="1">
  <image source="resized_image_32x32.png" width="32" height="32"/>
 </tileset>
 <objectgroup id="2" name="Block">
  <object id="1" name="1" x="32" y="0">
   <polygon points="0,0 32,0 32,224 0,224"/>
  </object>
  <object id="2" name="2" x="64" y="192">
   <polygon points="0,0 256,0 256,32 0,32"/>
  </object>
  <object id="3" name="3" x="224" y="192">
   <polygon points="0,0 0,-32 32,-32 32,0"/>
  </object>
  <object id="4" name="4" x="320" y="192">
   <polygon points="0,0 0,-64 32,-64 32,0"/>
  </object>
  <object id="5" name="5" x="288" y="224">
   <polygon points="0,0 96,0 96,32 0,32"/>
  </object>
  <object id="6" name="6" x="352" y="192">
   <polygon points="0,0 224,0 224,32 0,32"/>
  </object>
  <object id="7" name="7" x="448" y="192">
   <polygon points="0,0 0,-32 32,-32 32,0"/>
  </object>
  <object id="8" name="8" x="576" y="224">
   <polygon points="0,0 0,-224 32,-224 32,0"/>
  </object>
  <object id="9" name="9" x="0" y="320">
   <polygon points="0,0 640,0 640,64 0,64"/>
  </object>
 </objectgroup>
 <objectgroup id="3" name="PlayerChess">
  <object id="11" name="King" x="128" y="160">
   <polygon points="0,0 32,0 32,32 0,32"/>
  </object>
 </objectgroup>
 <objectgroup id="5" name="Button"/>
 <objectgroup id="4" name="TargetChess">
  <object id="10" name="targetChess" x="448" y="128">
   <polygon points="0,0 32,0 32,32 0,32"/>
  </object>
 </objectgroup>
 <layer id="1" name="Tile Layer 1" width="20" height="12">
  <data encoding="csv">
235,577,235,250,235,250,235,250,235,250,235,250,235,250,235,250,235,250,577,250,
250,577,250,235,250,235,250,235,250,235,250,235,250,235,250,235,250,235,577,235,
235,577,235,250,235,250,235,250,235,250,235,250,235,250,235,250,235,250,577,250,
250,577,250,235,250,235,250,235,250,235,250,235,250,235,250,235,250,235,577,235,
235,577,235,250,235,250,235,250,235,250,577,250,235,250,235,250,235,250,577,250,
250,577,250,235,250,235,250,577,250,235,577,235,250,235,577,235,250,235,577,235,
235,577,577,577,577,577,577,577,577,577,235,577,577,577,577,577,577,577,577,250,
250,235,250,235,250,235,250,235,250,577,577,577,250,235,250,235,250,235,250,235,
235,250,235,250,235,250,235,250,235,250,235,250,235,250,235,250,235,250,235,250,
250,235,250,235,250,235,250,235,250,235,250,235,250,235,250,235,250,235,250,235,
577,577,577,577,577,577,577,577,577,577,577,577,577,577,577,577,577,577,577,577,
577,577,577,577,577,577,577,577,577,577,577,577,577,577,577,577,577,577,577,577
</data>
 </layer>
</map>
